src/icons/solid/gallery-thumbnails.svg

<svg xmlns="http://www.w3.org/2000/svg" viewBox="0 0 576 512"><!--! Font Awesome Pro 6.7.2 by @fontawesome - https://fontawesome.com License - https://fontawesome.com/license (Commercial License) Copyright 2024 Fonticons, Inc. --><path d="M512 64l0 224L64 288 64 64l448 0zM64 0C28.7 0 0 28.7 0 64L0 288c0 35.3 28.7 64 64 64l448 0c35.3 0 64-28.7 64-64l0-224c0-35.3-28.7-64-64-64L64 0zM0 448l0 32c0 17.7 14.3 32 32 32l32 0c17.7 0 32-14.3 32-32l0-32c0-17.7-14.3-32-32-32l-32 0c-17.7 0-32 14.3-32 32zm192-32c-17.7 0-32 14.3-32 32l0 32c0 17.7 14.3 32 32 32l32 0c17.7 0 32-14.3 32-32l0-32c0-17.7-14.3-32-32-32l-32 0zm128 32l0 32c0 17.7 14.3 32 32 32l32 0c17.7 0 32-14.3 32-32l0-32c0-17.7-14.3-32-32-32l-32 0c-17.7 0-32 14.3-32 32zm192-32c-17.7 0-32 14.3-32 32l0 32c0 17.7 14.3 32 32 32l32 0c17.7 0 32-14.3 32-32l0-32c0-17.7-14.3-32-32-32l-32 0z"/></svg>

<svg xmlns="http://www.w3.org/2000/svg" viewBox="0 0 576 512"><!--! Font Awesome Pro 6.5.2 by @fontawesome - https://fontawesome.com License - https://fontawesome.com/license (Commercial License) Copyright 2024 Fonticons, Inc. --><path d="M512 64V288H64L64 64H512zM64 0C28.7 0 0 28.7 0 64V288c0 35.3 28.7 64 64 64H512c35.3 0 64-28.7 64-64V64c0-35.3-28.7-64-64-64H64zM0 448v32c0 17.7 14.3 32 32 32H64c17.7 0 32-14.3 32-32V448c0-17.7-14.3-32-32-32H32c-17.7 0-32 14.3-32 32zm192-32c-17.7 0-32 14.3-32 32v32c0 17.7 14.3 32 32 32h32c17.7 0 32-14.3 32-32V448c0-17.7-14.3-32-32-32H192zm128 32v32c0 17.7 14.3 32 32 32h32c17.7 0 32-14.3 32-32V448c0-17.7-14.3-32-32-32H352c-17.7 0-32 14.3-32 32zm192-32c-17.7 0-32 14.3-32 32v32c0 17.7 14.3 32 32 32h32c17.7 0 32-14.3 32-32V448c0-17.7-14.3-32-32-32H512z"/></svg>
